packages/foundations/assets/icons/functional/images/social/crown_32.svg

<svg width="32" height="32" viewBox="0 0 32 32" fill="none" xmlns="http://www.w3.org/2000/svg">
<g clip-path="url(#clip0_187_328)">
<path fill-rule="evenodd" clip-rule="evenodd" d="M27.0026 23.0006C27.5154 23.0006 28.0002 23.4163 28.0026 24.0006C28.0047 24.5006 28.0047 25.0006 28.0026 25.5006C28.0026 26.8261 26.9399 28.0002 25.5026 28.0006C19.1699 28.0023 12.8366 28.0023 6.50259 28.0006C5.1771 28.0006 4.00711 26.9165 4.00259 25.5006C4.00099 25.0006 4.00099 24.5006 4.00259 24.0006C4.00259 23.4483 4.4503 23.0006 5.00259 23.0006C5.51542 23.0006 6.00011 23.4054 6.00259 24.0006C6.00467 24.5006 6.00467 25.0006 6.00259 25.5006C6.00259 25.746 6.18495 26.0004 6.50259 26.0006C12.8333 26.0032 19.1666 26.0032 25.5026 26.0006C25.748 26.0006 26.0011 25.8004 26.0026 25.5006C26.0051 25.0006 26.0051 24.5006 26.0026 24.0006C26.0026 23.4483 26.4503 23.0006 27.0026 23.0006ZM22.0114 22.5006C22.5637 22.5006 23.0114 22.9483 23.0114 23.5006C23.0114 24.0529 22.5637 24.5006 22.0114 24.5006C21.4591 24.5006 21.0114 24.0529 21.0114 23.5006C21.0114 22.9483 21.4591 22.5006 22.0114 22.5006ZM10.0114 22.5006C10.5637 22.5006 11.0114 22.9483 11.0114 23.5006C11.0114 24.0529 10.5637 24.5006 10.0114 24.5006C9.45909 24.5006 9.01137 24.0529 9.01137 23.5006C9.01137 22.9483 9.45909 22.5006 10.0114 22.5006ZM16.0114 22.5006C16.5637 22.5006 17.0114 22.9483 17.0114 23.5006C17.0114 24.0529 16.5637 24.5006 16.0114 24.5006C15.4591 24.5006 15.0114 24.0529 15.0114 23.5006C15.0114 22.9483 15.4591 22.5006 16.0114 22.5006ZM15.1546 4.47047C15.547 3.84065 16.4019 3.84065 16.8506 4.47047C18.3433 6.85392 19.8333 9.23795 21.3206 11.6226L28.4726 7.15257C29.145 6.73232 30.1131 7.23048 29.9865 8.17945C29.4018 11.4359 28.8098 15.0253 28.2104 18.9478C28.0046 20.0799 27.0119 21.0006 25.7507 21.0006C19.2521 21.0025 12.7533 21.0025 6.25444 21.0006C5.10377 21.0006 4.00259 20.1898 3.79477 18.9478C3.20084 15.692 2.60882 12.1027 2.01872 8.1799C1.87012 7.36263 2.7599 6.67971 3.53255 7.15299C5.91812 8.64147 8.30179 10.131 10.6836 11.6216L15.1546 4.47047ZM16.0026 6.88757L11.8506 13.5306C11.5788 13.9654 11.0274 14.1193 10.5751 13.9047L10.4726 13.8486L4.39059 10.0476L5.76251 18.59C5.79493 18.7683 5.91951 18.9101 6.08172 18.9699L6.1657 18.9927L6.25444 19.0006H25.7507C25.9622 19.0006 26.1471 18.8683 26.219 18.6759L26.2427 18.59L27.6146 10.0456L21.5326 13.8486C21.1339 14.0977 20.6276 14.0316 20.3052 13.7176L20.2221 13.6259L20.1546 13.5306L16.0026 6.88757Z" fill="#1A1C1F"/>
</g>
<defs>
<clipPath id="clip0_187_328">
<rect width="32" height="32" fill="white"/>
</clipPath>
</defs>
</svg>

<svg xmlns="http://www.w3.org/2000/svg" width="32" height="32" fill="none"><g clip-path="url(#a)"><path fill="#1A1C1F" fill-rule="evenodd" d="M27.003 23c.512 0 .997.416 1 1q.003.75 0 1.5c0 1.326-1.063 2.5-2.5 2.5q-9.5.003-19 0a2.516 2.516 0 0 1-2.5-2.5q-.003-.75 0-1.5a1 1 0 1 1 2 0q.003.75 0 1.5c0 .246.182.5.5.5q9.496.004 19 0c.245 0 .498-.2.5-.5q.003-.75 0-1.5a1 1 0 0 1 1-1m-4.992-.5a1 1 0 1 1 0 2 1 1 0 0 1 0-2m-12 0a1 1 0 1 1 0 2 1 1 0 0 1 0-2m6 0a1 1 0 1 1 0 2 1 1 0 0 1 0-2m-.856-18.03c.392-.63 1.247-.63 1.696 0a4547 4547 0 0 1 4.47 7.153l7.152-4.47c.672-.42 1.64.077 1.514 1.026a422 422 0 0 0-1.777 10.769A2.5 2.5 0 0 1 25.75 21q-9.747.003-19.496 0c-1.15 0-2.251-.811-2.46-2.053A353 353 0 0 1 2.02 8.18c-.149-.817.74-1.5 1.514-1.027q3.578 2.232 7.15 4.469zm.848 2.418L11.85 13.53a1 1 0 0 1-1.276.374l-.102-.056-6.082-3.801 1.372 8.542a.5.5 0 0 0 .319.38l.084.023.088.008h19.497a.5.5 0 0 0 .468-.325l.024-.086 1.372-8.544-6.082 3.803a1 1 0 0 1-1.228-.131l-.083-.092-.067-.095z" clip-rule="evenodd"/></g><defs><clipPath id="a"><path fill="#fff" d="M0 0h32v32H0z"/></clipPath></defs></svg>
